X: 1
T: Ashley's Ride
S: Roaring Jelly collection
M: C|
R: reel
K: D
af |\
"D"d2d2 d2cd |  "A"e2e2 e2fe | "G"dcBA "A7"B2c2 | "D"dcde "(A7)"f2af |\
"D"d2d2 d2cd | "Em"e2e2 e2ge | "G"dcBA "A7"B2c2 | "D"d4 d2 :|
|: de |\
"D"f2f2 f2ef |  "G"g2g2 g2gf | "A"e2e2 e2de | "D"f2f2 f2af |\
"Bm"d2d2 d2cd | "Em"e2e2 e2ge | "G"dcBA "A7"B2c2 | "D"d4 D2 :|
